X: 1
T:Paddy Fahy's Jig
M:6/8
L:1/8
S:LNugent W-Gap Trk-1
R:Slow Jig
Z:Ed Wosika
K:G
A| DFA d2e| dcA  G3| AFE c2A| dcA (3FGA F|
   DFA d2e| dcA  G3| Adc AGE| EDD D2:|
A| DFA fed| cAG A2B| c2B edc| (3ABc A G3|
   A2d fed| cAG EFG| Adc AGE| EDD D2:|
